src/images/circle2.svg

<svg width="252" height="252" viewBox="0 0 252 252" fill="none" xmlns="http://www.w3.org/2000/svg">
<g clip-path="url(#clip0_334_55)">
<path d="M-0.00823863 126C-0.00823785 195.588 56.1491 252 125.423 252C194.696 252 250.854 195.588 250.854 126C250.854 56.4121 194.696 7.08435e-07 125.423 1.58233e-06C56.1491 2.45623e-06 -0.00823942 56.4121 -0.00823863 126Z" fill="url(#paint0_radial_334_55)"/>
<mask id="mask0_334_55" style="mask-type:luminance" maskUnits="userSpaceOnUse" x="91" y="86" width="143" height="143">
<path d="M91.8133 157.252C91.8133 196.425 123.426 228.18 162.422 228.18C201.418 228.18 233.03 196.425 233.03 157.252C233.03 118.079 201.418 86.3228 162.422 86.3228C123.426 86.3228 91.8133 118.079 91.8133 157.252Z" fill="white"/>
</mask>
<g mask="url(#mask0_334_55)">
<path d="M91.8133 157.252C91.8133 196.425 123.426 228.18 162.422 228.18C201.418 228.18 233.03 196.425 233.03 157.252C233.03 118.079 201.418 86.3228 162.422 86.3228C123.426 86.3228 91.8133 118.079 91.8133 157.252Z" fill="url(#paint1_linear_334_55)"/>
<path d="M86.8812 164.998C86.8812 210.801 123.844 247.932 169.441 247.932C215.037 247.932 252 210.801 252 164.998C252 119.195 215.037 82.064 169.441 82.064C123.844 82.064 86.8812 119.195 86.8812 164.998Z" fill="url(#paint2_radial_334_55)"/>
</g>
</g>
<defs>
<radialGradient id="paint0_radial_334_55" cx="0" cy="0" r="1" gradientUnits="userSpaceOnUse" gradientTransform="translate(125.423 126) rotate(90) scale(126 125.431)">
<stop offset="0.03" stop-color="#00DCCD"/>
<stop offset="0.06" stop-color="#00DCCD" stop-opacity="0.94"/>
<stop offset="0.2" stop-color="#00DCCD" stop-opacity="0.69"/>
<stop offset="0.34" stop-color="#00DCCD" stop-opacity="0.48"/>
<stop offset="0.47" stop-color="#00DCCD" stop-opacity="0.31"/>
<stop offset="0.61" stop-color="#00DCCD" stop-opacity="0.17"/>
<stop offset="0.74" stop-color="#00DCCD" stop-opacity="0.08"/>
<stop offset="0.88" stop-color="#00DCCD" stop-opacity="0.02"/>
<stop offset="1" stop-color="#00DCCD" stop-opacity="0"/>
</radialGradient>
<linearGradient id="paint1_linear_334_55" x1="112.499" y1="107.102" x2="212.797" y2="206.947" gradientUnits="userSpaceOnUse">
<stop offset="0.31" stop-color="#5449FF"/>
<stop offset="0.91" stop-color="#9603FF"/>
</linearGradient>
<radialGradient id="paint2_radial_334_55" cx="0" cy="0" r="1" gradientUnits="userSpaceOnUse" gradientTransform="translate(169.441 164.998) scale(82.5594 82.934)">
<stop offset="0.57" stop-color="#00C3BB" stop-opacity="0"/>
<stop offset="0.61" stop-color="#00C4BC" stop-opacity="0.02"/>
<stop offset="0.66" stop-color="#00C8BF" stop-opacity="0.09"/>
<stop offset="0.72" stop-color="#00CEC4" stop-opacity="0.19"/>
<stop offset="0.78" stop-color="#00D7CB" stop-opacity="0.34"/>
<stop offset="0.85" stop-color="#00E3D4" stop-opacity="0.54"/>
<stop offset="0.92" stop-color="#00F0DF" stop-opacity="0.77"/>
<stop offset="0.98" stop-color="#00FFEB"/>
</radialGradient>
<clipPath id="clip0_334_55">
<rect width="252" height="252" fill="white" transform="translate(252) rotate(90)"/>
</clipPath>
</defs>
</svg>

<svg width="252" height="252" fill="none" xmlns="http://www.w3.org/2000/svg"><g clip-path="url(#a)"><path d="M-.008 126c0 69.588 56.157 126 125.431 126 69.273 0 125.431-56.412 125.431-126S194.696 0 125.423 0C56.149 0-.008 56.412-.008 126Z" fill="url(#b)"/><mask id="c" style="mask-type:luminance" maskUnits="userSpaceOnUse" x="91" y="86" width="143" height="143"><path d="M91.813 157.252c0 39.173 31.613 70.928 70.609 70.928 38.996 0 70.608-31.755 70.608-70.928s-31.612-70.93-70.608-70.93c-38.996 0-70.609 31.757-70.609 70.93Z" fill="#fff"/></mask><g mask="url(#c)"><path d="M91.813 157.252c0 39.173 31.613 70.928 70.609 70.928 38.996 0 70.608-31.755 70.608-70.928s-31.612-70.93-70.608-70.93c-38.996 0-70.609 31.757-70.609 70.93Z" fill="url(#d)"/><path d="M86.881 164.998c0 45.803 36.963 82.934 82.56 82.934 45.596 0 82.559-37.131 82.559-82.934s-36.963-82.934-82.559-82.934c-45.597 0-82.56 37.131-82.56 82.934Z" fill="url(#e)"/></g></g><defs><radialGradient id="b" cx="0" cy="0" r="1" gradientUnits="userSpaceOnUse" gradientTransform="matrix(0 126 -125.431 0 125.423 126)"><stop offset=".03" stop-color="#00DCCD"/><stop offset=".06" stop-color="#00DCCD" stop-opacity=".94"/><stop offset=".2" stop-color="#00DCCD" stop-opacity=".69"/><stop offset=".34" stop-color="#00DCCD" stop-opacity=".48"/><stop offset=".47" stop-color="#00DCCD" stop-opacity=".31"/><stop offset=".61" stop-color="#00DCCD" stop-opacity=".17"/><stop offset=".74" stop-color="#00DCCD" stop-opacity=".08"/><stop offset=".88" stop-color="#00DCCD" stop-opacity=".02"/><stop offset="1" stop-color="#00DCCD" stop-opacity="0"/></radialGradient><radialGradient id="e" cx="0" cy="0" r="1" gradientUnits="userSpaceOnUse" gradientTransform="matrix(82.5594 0 0 82.934 169.441 164.998)"><stop offset=".57" stop-color="#00C3BB" stop-opacity="0"/><stop offset=".61" stop-color="#00C4BC" stop-opacity=".02"/><stop offset=".66" stop-color="#00C8BF" stop-opacity=".09"/><stop offset=".72" stop-color="#00CEC4" stop-opacity=".19"/><stop offset=".78" stop-color="#00D7CB" stop-opacity=".34"/><stop offset=".85" stop-color="#00E3D4" stop-opacity=".54"/><stop offset=".92" stop-color="#00F0DF" stop-opacity=".77"/><stop offset=".98" stop-color="#00FFEB"/></radialGradient><linearGradient id="d" x1="112.499" y1="107.102" x2="212.797" y2="206.947" gradientUnits="userSpaceOnUse"><stop offset=".31" stop-color="#5449FF"/><stop offset=".91" stop-color="#9603FF"/></linearGradient><clipPath id="a"><path fill="#fff" transform="rotate(90 126 126)" d="M0 0h252v252H0z"/></clipPath></defs></svg>
